X:1
T:MUS240 Woodwind Trio
C:Ali Corbin
M:3/2
L:1/2
Q:1/2=100
K:Dmin
%%center  Idumea
%%center  (And am I born to die, to lay this body down?
%%center  And must my trembling spirit fly into a world unknown?
%%center  A land of deepest shade, unpierced by human thought
%%center  The dreary regions of the dead, where all things are forgot!)
%%center ++ something with eighth notes for the flute at 12 ++
%%MIDI program 1 73 % Flute
%%MIDI program 2 72 % Clarinet
%%MIDI program 3 70 % Bassoon
V:Flute name="Flute" snm="Fl"
LD2-D/>z/|LF2-F/>z/|z3|LD2-D/>z/|LF3|z3|LD2-D/>z/|LF3|z3|LD2-D/>z/|LF2 z|
s: !ppp!|||||+pp+||||+f+
z3|z3|z3|z3|z3|z2  (a|
c'2 a/2g/2|a2) (g/2f/2|d2c/2A/2|c2) (c|d2 c/2d/2|f2) (g/2f/2|d2) z|
f/4f'/4d'/4d''/4 a/4a'/4a/4d'/4 a/2>z/2|d/4d'/4=b/4b'/4 f/4f'/4f/4b/4 f/2>z/2|=B/4b/4g/4g'/4 d/4d'/4d/4g/4 d/2>z/2| 
s: +f+|||
s: +<(+|||
.e/4.e'/4.=b/4.b'/4 .g/4.g'/4.g/4.b/4 g/2>z/2|.g/4.g'/4.c'/4.c''/4 .=b/4.b'/4.b/4.d'/4 b/2>z/2|.=b/4.g'/4.c'/4.c''/4 .b/4.b'/4.b/4.d'/4 b/2>z/2|e'3||
s: |||+ffff+
s: |||+<)+
s: |||+fermata+
V:Clarinet name="Bb Clarinet" snm="Cl"
%%%%[K:Emin transpose=-2]
z3|z3|z3|z3|z3|z3|(DA,D|AdA|G)z(C|DCB,|A,2)
%%z3|z3|z3|z3|z3|z3|(EB,E|BeB|A)z(D|EDC|B,2)z|
s: +pp+
d|d2 (c/2d/2)|f2 (g/2f/2)|d2 a|c'2 (a/2g/2)|f2 g|a2 z|
z3|LD2-D/>z/|LF3|z3|LD2-D/>z/|LF3|z2 (A|
%%z3|E3|G3|z3|E3|G3|z2 (B|
s: |+mp+|||+mf+||
c2 A/2G/2|A2) (G/2F/2|D2 C/2A,/2|C2) (^C|D2 ^C/2D/2|F2) (G/2F/2|D3)||
%%d2 B/2A/2|B2) (A/2G/2|E2 D/2B,/2|D2) (^D|E2 ^D/2E/2|G2) (A/2G/2|E3)||
s: ||||||+ffff+
s: +<(+||||||+<)+
s: ||||||+fermata+
V:Bassoon name="Bassoon" snm="Bas" clef=tenor
z3|z3|z3|z3|z2 (D|D2 C/2D/2|F2 G/2F/2|D2) (A|c2 A/2G/2|F2 G|A2) z|
s: +p+|||
LD2-D/>z/|LF2-F/>z/|z3|LD2-D/>z/|LF3|z3|
[K:bass]
G,/4A,/4=B,/2C/2DE/4z/4|E,/4F,/4G,/2A,/2=B,C/4z/4|C,/4D,/4E,/2F,/2G,A,/4z/4|=B,2z|D/4C/4=B,/2A,/2G,F,/4z/4|=B,/4A,/4G,/2F,/2E,D,/4z/4|C,2 z|
s: +p+|||+f+|||+mf+
s: +<(+|||+<)+|+>(+||+>)+
LD,,2-D,,/>z/|LF,,3|z3|LD,,3-|D,,2-D,,/>z/|L_E,,3-|_E,,3||
s: +f+|||+ff+||+f+|+ffff+
s: ||||||+fermata+


